X: 26
T: Mr. Dawsons New Minuet
C: (Cantelo)
R: minuet
M: 3/4
L: 1/16
Z: 2010 John Chambers <jc:trillian.mit.edu>
B: Cantelo ed. "Twenty Four American Country Dances", London 1785 (Longman & Broderip)
S: http://www.archive.org/stream/bibliographyofea00sonnrich/bibliographyofea00sonnrich_djvu.txt
S: http://imslp.org/wiki/24_American_Country_Dances_(Cantelo,_Hezekiah)
K: F
%
V: 1
|:\
((3F2A2c2) c6 B2 | ((3A2c2f2) (f6 ga) |\
g2e2c2G2A2B2 | (BA^GA) A8 |\
((3F2A2c2) c6 B2 |
((3A2c2e2) f6 e2 |\
(d3e/f/) A2(fe) ({e}d2c=B) | (=B8 c2)z2 :|\
|:\
(c3BA2)a2f2c2 | (B3AG2)g2e2B2 |
(A3GF2)f2{d}c2{B}A2 | (c3A)(G2A2)(B2=B2) |\
(c3BA2)a2f2A2 | (B2b2)(g2e2)(f2_e2) |\
d3B G2(ba) {a}g2(fe) | (e8 f2)z2 :|
%
V: 2 clef=bass middle=d
|: F4A4c4 | f4F4z4  | z4e4c4 | f2c2A2c2F4 | F4A4c4 | f4a4c'4 | f4d4g4 | c2c'2g2e2c4 :|
|: f8z4 | e8z4 | f4a4f4 | c'4c4z4 | f8z4 | e4c4f4 | B4c4C4 | F2f2c2A2F4 :|

%%sep 2 1 500

